X:66
L:1/8
Q:1/2=60
M:4/4
K:C
 C |[K:G] aeO aD1747GA | B2 BB B2 d2 |"^sic" cB A2 AA A2 | Bc d2 cB c2 | BA G2 GG G2 :: ge | 
 d2 dd d2 GA | B2 BB B2 ge | d2 dd d2 cB | AGFE D2 B2 | BB B2 g2 dB | A2 AA A2 Bc | d2 cB c2 BA | 
 G2 GG G2 :|

